X: 15756
T: Good Drying
R: reel
M: 4/4
K: Amixolydian
c/c/c GAG ccG|d/d/d Gde GdG|c/c/c GAG ccG|d/d/d GB A/A/A AG|
c/c/c GAG ccG|d/d/d Gde GdG-|G ccd eA A/A/A|c/c/d dG A4-:|
|:A ccd eee f-|g3e BccG-|G ccd eA A/A/A|c/c/d dG A/A/A AG-|
G ccd eee f-|g3e BccG-|G ccd eA A/A/A|c/c/d dG A4:|
|:c/c/c GAG ccG|d/d/d GdG ddG|c/c/c GAG ccG|d/d/d GB A/A/A AG|
c/c/c GA GccG|d/d/d Gd GddG-|G ccd eA A/A/A|c/c/d dG A4-:|
|:A ccd eA A/A/A|c/c/d dG c/c/d dG-|G ccd eA A/A/A|c/c/d dG A/A/A AG-|
G ccd eA A/A/A|cddG cddG|eA A/A/A AeeA|c/c/d dG A4-:|

